X: 42936
T: William Durette's Clog
R: barndance
M: 4/4
K: Dmajor
dAFA dfed|cBGE B2 BB|AAce agec|defd A2 fe|
dAFA dfed|cBGE B2 BB|AAce agec|1 dfec dg:|2 dfec d2||
a2 aa bafd|edeg B2 ed|cAce agec|defd A2 fg|
a2 aa bafd|edeg B2 ed|cAce agec|dfec d2 fg|
a2 aa bafd|edeg B2 ed|cAce agec|defg a2 fg|
a2 aa bafd|edeg B2 ed|cAce agec|dfec d2||

